public/mascots/dropout/bear-late-registration-64x64.svg

<svg xmlns="http://www.w3.org/2000/svg" width="64" height="64" viewBox="0 0 64 64"><defs><linearGradient id="a" x1="0%" x2="100%" y1="0%" y2="100%"><stop offset="0%" style="stop-color:#8b4513"/><stop offset="100%" style="stop-color:#654321"/></linearGradient><linearGradient id="b" x1="0%" x2="0%" y1="0%" y2="100%"><stop offset="0%" style="stop-color:#8b7355"/><stop offset="100%" style="stop-color:#5c4033"/></linearGradient></defs><circle cx="20" cy="16" r="8" fill="url(#a)"/><circle cx="44" cy="16" r="8" fill="url(#a)"/><ellipse cx="32" cy="24" fill="url(#a)" rx="16" ry="14"/><ellipse cx="32" cy="28" fill="#deb887" rx="8" ry="6"/><ellipse cx="32" cy="26" fill="#333" rx="4" ry="3"/><path fill="none" stroke="#333" stroke-width="1.2" d="M23 22q3-2 6 0M35 22q3-2 6 0"/><path fill="none" stroke="#654321" d="m28 11 2-3 2 3 2-3 2 3"/><path fill="url(#b)" d="M20 36q0-6 12-8 12 2 12 8 0 16-12 20-12-4-12-20"/><path stroke="#5c4033" d="M32 32v20"/><path fill="peru" d="m24 32 8 6 8-6"/><ellipse cx="18" cy="42" fill="url(#b)" ry="6"/><ellipse cx="46" cy="42" fill="url(#b)" ry="6"/></svg>

<svg xmlns="http://www.w3.org/2000/svg" viewBox="0 0 64 64" width="64" height="64">
  <defs>
    <linearGradient id="lrBearBrown64" x1="0%" y1="0%" x2="100%" y2="100%">
      <stop offset="0%" style="stop-color:#8B4513"/>
      <stop offset="100%" style="stop-color:#654321"/>
    </linearGradient>
    <linearGradient id="lrBearJacket64" x1="0%" y1="0%" x2="0%" y2="100%">
      <stop offset="0%" style="stop-color:#8B7355"/>
      <stop offset="100%" style="stop-color:#5C4033"/>
    </linearGradient>
  </defs>
  <circle cx="20" cy="16" r="8" fill="url(#lrBearBrown64)"/>
  <circle cx="44" cy="16" r="8" fill="url(#lrBearBrown64)"/>
  <ellipse cx="32" cy="24" rx="16" ry="14" fill="url(#lrBearBrown64)"/>
  <ellipse cx="32" cy="28" rx="8" ry="6" fill="#DEB887"/>
  <ellipse cx="32" cy="26" rx="4" ry="3" fill="#333"/>
  <path d="M23 22 Q26 20 29 22" stroke="#333" stroke-width="1.2" fill="none"/>
  <path d="M35 22 Q38 20 41 22" stroke="#333" stroke-width="1.2" fill="none"/>
  <path d="M28 11 L30 8 L32 11 L34 8 L36 11" fill="none" stroke="#654321" stroke-width="1"/>
  <path d="M20 36 Q20 30 32 28 Q44 30 44 36 Q44 52 32 56 Q20 52 20 36Z" fill="url(#lrBearJacket64)"/>
  <line x1="32" y1="32" x2="32" y2="52" stroke="#5C4033" stroke-width="1"/>
  <path d="M24 32 L32 38 L40 32" fill="#CD853F"/>
  <ellipse cx="18" cy="42" r="4" ry="6" fill="url(#lrBearJacket64)"/>
  <ellipse cx="46" cy="42" r="4" ry="6" fill="url(#lrBearJacket64)"/>
</svg>
